X: 32345
T: Pine Tree, The
R: reel
M: 4/4
K: Gmajor
DG|:E2 DE GABG|ABGE D2 DG|E2 DE GABd|egdB AG DG|
E2 DE GABG|ABGE GABd|eBBe fg e/d/B|1 c/B/A BG ED DG:|2 c/B/A BG ED D2||
a2 ag agef|g2 ge dGB/c/d|eaag agef|gbbg aged|
a2 ag agef|gbge dGB/c/d|c2 cA B2 BG|AGE/F/G ABce|
a2 ag agef|g2 ge dGB/c/d|eaag agef|gb2^a =aged|
a2 ag agef|gbge dGB/c/d|c2 cA B2 BG|ABAG ED D(G||

